;FLAVOR:UltiGCode
;TIME:4554
;MATERIAL:19761
;MATERIAL2:0
;NOZZLE_DIAMETER:0.4
;MINX:62.252
;MINY:91.983
;MINZ:0.27
;MAXX:144.85
;MAXY:157.683
;MAXZ:29.97
;Generated with Cura_SteamEngine 4.10.0
M82 ;absolute extrusion mode
G0 F3000 Y50 ;avoid prime blob
G92 E0
G92 E0
G10
;LAYER_COUNT:100
;LAYER:0
M107
G0 F4050 X65.987 Y96.569 Z0.27
;TYPE:SKIRT
G11
G1 F2700 X66.676 Y96.175 E0.075
G1 X67.401 Y95.853 E0.14997
G1 X68.155 Y95.605 E0.22498
G1 X68.93 Y95.435 E0.29996
G1 X69.718 Y95.343 E0.37493
G1 X70.43 Y95.328 E0.44223
G1 X71.83 Y95.363 E0.57457
G1 X72.242 Y95.385 E0.61356
G1 X73.75 Y95.502 E0.75649
G1 X74.135 Y95.541 E0.79306
G1 X75.636 Y95.732 E0.93605
G1 X76.026 Y95.792 E0.97334
G1 X77.527 Y96.06 E1.11743
G1 X77.935 Y96.144 E1.15679
G1 X79.42 Y96.491 E1.3009
G1 X79.795 Y96.588 E1.33751
G1 X81.245 Y97.003 E1.48003
G1 X81.623 Y97.121 E1.51746
G1 X83.061 Y97.612 E1.66105
G1 X83.443 Y97.754 E1.69956
G1 X84.854 Y98.319 E1.84319
G1 X85.218 Y98.476 E1.88066
G1 X86.605 Y99.114 E2.02493
G1 X86.958 Y99.287 E2.06208
G1 X88.303 Y99.989 E2.20545
G1 X88.658 Y100.186 E2.24382
G1 X89.954 Y100.95 E2.38599
G1 X90.289 Y101.159 E2.4233
G1 X91.571 Y102.004 E2.5684
G1 X91.898 Y102.232 E2.60607
G1 X93.114 Y103.125 E2.74864
G1 X93.429 Y103.368 E2.78623
G1 X94.614 Y104.334 E2.93071
G1 X94.923 Y104.6 E2.96924
G1 X95.332 Y104.97 E3.02136
G1 X95.36 Y104.867 E3.03145
G1 X95.625 Y104.032 E3.11423
G1 X95.854 Y103.405 E3.17731
G1 X96.191 Y102.59 E3.26065
G1 X96.49 Y101.948 E3.32758
G1 X96.884 Y101.195 E3.40789
G1 X97.224 Y100.608 E3.472
G1 X97.699 Y99.864 E3.55541
G1 X98.092 Y99.304 E3.62006
G1 X98.626 Y98.609 E3.70289
G1 X99.075 Y98.076 E3.76875
G1 X99.66 Y97.44 E3.85041
G1 X100.14 Y96.961 E3.91449
G1 X100.774 Y96.381 E3.99569
G1 X101.307 Y95.935 E4.06137
G1 X102.008 Y95.399 E4.14476
G1 X102.567 Y95.009 E4.20917
G1 X103.305 Y94.54 E4.2918
G1 X103.905 Y94.195 E4.35721
G1 X104.665 Y93.801 E4.4381
G1 X105.272 Y93.518 E4.50139
G1 X106.082 Y93.182 E4.58426
G1 X106.75 Y92.94 E4.6514
G1 X107.585 Y92.679 E4.73408
G1 X108.232 Y92.506 E4.79736
G1 X109.077 Y92.319 E4.87915
G1 X109.75 Y92.2 E4.94373
G1 X110.6 Y92.088 E5.02475
G1 X111.3 Y92.028 E5.09115
G1 X112.209 Y91.99 E5.17712
G1 X112.538 Y91.983 E5.20822
G1 X120.372 Y91.983 E5.94853
G1 X121.164 Y92.023 E6.02347
G1 X121.949 Y92.142 E6.0985
G1 X122.717 Y92.34 E6.17345
G1 X123.462 Y92.615 E6.2485
G1 X124.175 Y92.962 E6.32343
G1 X124.85 Y93.38 E6.39846
G1 X125.479 Y93.863 E6.4734
G1 X125.94 Y94.29 E6.53278
G1 X126.043 Y94.393 E6.54655
G1 X126.576 Y94.981 E6.62155
G1 X127.046 Y95.62 E6.69651
G1 X127.449 Y96.304 E6.77153
G1 X127.782 Y97.024 E6.84649
G1 X128.04 Y97.774 E6.92145
G1 X128.222 Y98.547 E6.99649
G1 X128.325 Y99.333 E7.0714
G1 X128.35 Y99.961 E7.1308
G1 X128.35 Y110.195 E8.09791
G1 X136.872 Y110.195 E8.90324
G1 X137.664 Y110.235 E8.97818
G1 X138.449 Y110.354 E9.05321
G1 X139.217 Y110.552 E9.12816
G1 X139.962 Y110.827 E9.2032
G1 X140.675 Y111.174 E9.27814
G1 X141.35 Y111.592 E9.35316
G1 X141.979 Y112.075 E9.42811
G1 X142.44 Y112.502 E9.48749
G1 X142.543 Y112.605 E9.50125
G1 X143.076 Y113.193 E9.57625
G1 X143.546 Y113.832 E9.65121
G1 X143.949 Y114.516 E9.72623
G1 X144.282 Y115.236 E9.8012
G1 X144.54 Y115.986 E9.87615
G1 X144.722 Y116.759 E9.9512
G1 X144.825 Y117.545 E10.02611
G1 X144.85 Y118.173 E10.0855
G1 X144.85 Y147.917 E12.89631
G1 X144.81 Y148.709 E12.97125
G1 X144.691 Y149.494 E13.04628
G1 X144.493 Y150.262 E13.12123
G1 X144.218 Y151.007 E13.19627
G1 X143.871 Y151.72 E13.27121
G1 X143.453 Y152.395 E13.34624
G1 X142.97 Y153.024 E13.42118
G1 X142.543 Y153.485 E13.48056
G1 X142.44 Y153.588 E13.49433
G1 X141.852 Y154.121 E13.56932
G1 X141.213 Y154.591 E13.64428
G1 X140.529 Y154.994 E13.71931
G1 X139.809 Y155.327 E13.79427
G1 X139.059 Y155.585 E13.86922
G1 X138.286 Y155.767 E13.94427
G1 X137.5 Y155.87 E14.01918
G1 X136.872 Y155.895 E14.07857
G1 X122.367 Y155.895 E15.4493
G1 X122.352 Y155.909 E15.45123
G1 X121.713 Y156.379 E15.5262
G1 X121.029 Y156.782 E15.60122
G1 X120.309 Y157.115 E15.67618
G1 X119.559 Y157.373 E15.75113
G1 X118.786 Y157.555 E15.82618
G1 X118 Y157.658 E15.90109
G1 X117.372 Y157.683 E15.96049
G1 X102.628 Y157.683 E17.35379
G1 X101.836 Y157.643 E17.42873
G1 X101.051 Y157.524 E17.50376
G1 X100.283 Y157.326 E17.57871
G1 X99.538 Y157.051 E17.65376
G1 X98.825 Y156.704 E17.72869
G1 X98.15 Y156.286 E17.80372
G1 X97.808 Y156.023 E17.84449
G1 X85.229 Y156.023 E19.03321
G1 X84.437 Y155.983 E19.10814
G1 X83.652 Y155.864 E19.18317
G1 X82.884 Y155.666 E19.25812
G1 X82.139 Y155.391 E19.33317
G1 X81.426 Y155.044 E19.4081
G1 X80.751 Y154.626 E19.48313
G1 X80.122 Y154.143 E19.55808
G1 X79.661 Y153.716 E19.61746
G1 X79.558 Y153.613 E19.63122
G1 X79.025 Y153.025 E19.70622
G1 X78.555 Y152.386 E19.78118
G1 X78.152 Y151.702 E19.8562
G1 X77.819 Y150.982 E19.93117
G1 X77.561 Y150.232 E20.00612
G1 X77.379 Y149.459 E20.08116
G1 X77.276 Y148.673 E20.15608
G1 X77.251 Y148.045 E20.21547
G1 X77.251 Y133.308 E21.60812
G1 X77.227 Y132.653 E21.67005
G1 X77.172 Y132.144 E21.71843
G1 X77.085 Y131.663 E21.76463
G1 X76.956 Y131.157 E21.81397
G1 X76.796 Y130.676 E21.86188
G1 X76.596 Y130.196 E21.91102
G1 X76.367 Y129.738 E21.95941
G1 X76.118 Y129.318 E22.00555
G1 X75.807 Y128.872 E22.05693
G1 X75.5 Y128.492 E22.10309
G1 X75.15 Y128.118 E22.1515
G1 X74.785 Y127.778 E22.19864
G1 X74.386 Y127.457 E22.24703
G1 X73.958 Y127.158 E22.29637
G1 X73.521 Y126.9 E22.34433
G1 X73.067 Y126.673 E22.39229
G1 X72.593 Y126.477 E22.44076
G1 X72.112 Y126.318 E22.48864
G1 X71.589 Y126.184 E22.53966
G1 X71.126 Y126.102 E22.58409
G1 X70.609 Y126.046 E22.63323
G1 X69.942 Y126.022 E22.69631
G1 X69.152 Y125.954 E22.77124
G1 X68.372 Y125.806 E22.84626
G1 X67.611 Y125.581 E22.92126
G1 X66.877 Y125.28 E22.99622
G1 X66.176 Y124.907 E23.07126
G1 X65.517 Y124.466 E23.1462
G1 X64.906 Y123.96 E23.22116
G1 X64.544 Y123.607 E23.26895
G1 X64.447 Y123.506 E23.28218
G1 X63.927 Y122.907 E23.35714
G1 X63.47 Y122.258 E23.43215
G1 X63.08 Y121.567 E23.50713
G1 X62.762 Y120.84 E23.58212
G1 X62.519 Y120.085 E23.65707
G1 X62.353 Y119.309 E23.73206
G1 X62.266 Y118.52 E23.80707
G1 X62.252 Y118.051 E23.85141
G1 X62.252 Y103.304 E25.245
G1 X62.292 Y102.512 E25.31994
G1 X62.411 Y101.727 E25.39497
G1 X62.609 Y100.959 E25.46992
G1 X62.884 Y100.214 E25.54497
G1 X63.231 Y99.501 E25.6199
G1 X63.649 Y98.826 E25.69493
G1 X64.132 Y98.197 E25.76987
G1 X64.639 Y97.656 E25.83994
G1 X64.745 Y97.553 E25.85391
G1 X65.341 Y97.03 E25.92884
G1 X65.987 Y96.569 E26.00384
G0 F4050 X66.205 Y96.845
G1 F2700 X66.881 Y96.464 E26.07717
G1 X67.592 Y96.155 E26.15043
G1 X68.332 Y95.92 E26.2238
G1 X69.091 Y95.763 E26.29704
G1 X69.863 Y95.685 E26.37037
G1 X70.421 Y95.678 E26.4231
G1 X71.821 Y95.713 E26.55544
G1 X72.215 Y95.734 E26.59273
G1 X73.723 Y95.851 E26.73566
G1 X74.091 Y95.888 E26.77062
G1 X75.592 Y96.079 E26.9136
G1 X75.965 Y96.136 E26.94926
G1 X77.466 Y96.404 E27.09335
G1 X77.855 Y96.484 E27.13088
G1 X79.34 Y96.831 E27.27499
G1 X79.699 Y96.924 E27.31004
G1 X81.149 Y97.339 E27.45256
G1 X81.51 Y97.453 E27.48834
G1 X82.948 Y97.944 E27.63193
G1 X83.313 Y98.079 E27.66871
G1 X84.724 Y98.644 E27.81234
G1 X85.072 Y98.794 E27.84815
G1 X86.459 Y99.432 E27.99243
G1 X86.796 Y99.597 E28.02788
G1 X88.141 Y100.299 E28.17126
G1 X88.48 Y100.488 E28.20794
G1 X89.776 Y101.252 E28.3501
G1 X90.096 Y101.451 E28.38571
G1 X91.378 Y102.296 E28.53081
G1 X91.691 Y102.514 E28.56686
G1 X92.907 Y103.407 E28.70943
G1 X93.208 Y103.639 E28.74534
G1 X94.393 Y104.605 E28.88982
G1 X94.688 Y104.859 E28.92661
G1 X95.521 Y105.613 E29.03278
G1 X95.694 Y104.973 E29.09543
G1 X95.959 Y104.138 E29.17822
G1 X96.177 Y103.539 E29.23846
G1 X96.514 Y102.724 E29.3218
G1 X96.801 Y102.11 E29.38585
G1 X97.195 Y101.357 E29.46616
G1 X97.519 Y100.797 E29.5273
G1 X97.994 Y100.053 E29.61071
G1 X98.37 Y99.517 E29.67258
G1 X98.904 Y98.822 E29.75541
G1 X99.333 Y98.313 E29.81832
G1 X99.918 Y97.677 E29.89998
G1 X100.377 Y97.219 E29.96125
G1 X101.011 Y96.639 E30.04245
G1 X101.519 Y96.213 E30.10511
G1 X102.22 Y95.677 E30.1885
G1 X102.755 Y95.304 E30.25013
G1 X103.493 Y94.835 E30.33276
G1 X104.066 Y94.505 E30.39525
G1 X104.826 Y94.111 E30.47614
G1 X105.406 Y93.841 E30.5366
G1 X106.216 Y93.505 E30.61947
G1 X106.854 Y93.274 E30.68359
G1 X107.689 Y93.013 E30.76626
G1 X108.308 Y92.848 E30.8268
G1 X109.153 Y92.661 E30.90859
G1 X109.796 Y92.547 E30.9703
G1 X110.646 Y92.435 E31.05132
G1 X111.315 Y92.378 E31.11477
G1 X112.224 Y92.34 E31.20074
G1 X112.538 Y92.333 E31.23042
G1 X120.372 Y92.333 E31.97074
G1 X121.147 Y92.373 E32.04407
G1 X121.913 Y92.492 E32.11733
G1 X122.663 Y92.69 E32.19063
G1 X123.389 Y92.964 E32.26396
G1 X124.082 Y93.311 E32.3372
G1 X124.736 Y93.728 E32.4105
G1 X125.344 Y94.21 E32.48382
G1 X125.796 Y94.64 E32.54277
G1 X126.315 Y95.216 E32.61604
G1 X126.773 Y95.842 E32.68934
G1 X127.163 Y96.513 E32.76268
G1 X127.483 Y97.219 E32.83593
G1 X127.728 Y97.955 E32.90924
G1 X127.896 Y98.713 E32.98261
G1 X127.985 Y99.483 E33.05586
G1 X128 Y99.961 E33.10105
G1 X128 Y110.545 E34.10124
G1 X136.872 Y110.545 E34.93964
G1 X137.647 Y110.585 E35.01298
G1 X138.413 Y110.704 E35.08623
G1 X139.163 Y110.902 E35.15953
G1 X139.889 Y111.176 E35.23287
G1 X140.582 Y111.523 E35.3061
G1 X141.236 Y111.94 E35.3794
G1 X141.844 Y112.422 E35.45272
G1 X142.296 Y112.852 E35.51168
G1 X142.815 Y113.428 E35.58495
G1 X143.273 Y114.054 E35.65825
G1 X143.663 Y114.725 E35.73159
G1 X143.983 Y115.431 E35.80484
G1 X144.228 Y116.167 E35.87814
G1 X144.396 Y116.925 E35.95151
G1 X144.485 Y117.695 E36.02476
G1 X144.5 Y118.173 E36.06995
G1 X144.5 Y147.917 E38.88076
G1 X144.46 Y148.692 E38.9541
G1 X144.341 Y149.458 E39.02735
G1 X144.143 Y150.208 E39.10066
G1 X143.869 Y150.934 E39.17399
G1 X143.522 Y151.627 E39.24723
G1 X143.105 Y152.281 E39.32052
G1 X142.623 Y152.889 E39.39384
G1 X142.193 Y153.341 E39.4528
G1 X141.617 Y153.86 E39.52607
G1 X140.991 Y154.318 E39.59937
G1 X140.32 Y154.708 E39.67271
G1 X139.614 Y155.028 E39.74596
G1 X138.878 Y155.273 E39.81926
G1 X138.12 Y155.441 E39.89263
G1 X137.35 Y155.53 E39.96588
G1 X136.872 Y155.545 E40.01108
G1 X122.231 Y155.545 E41.39465
G1 X122.117 Y155.648 E41.40917
G1 X121.491 Y156.106 E41.48247
G1 X120.82 Y156.496 E41.55581
G1 X120.114 Y156.816 E41.62906
G1 X119.378 Y157.061 E41.70236
G1 X118.62 Y157.229 E41.77573
G1 X117.85 Y157.318 E41.84898
G1 X117.372 Y157.333 E41.89418
G1 X102.628 Y157.333 E43.28748
G1 X101.853 Y157.293 E43.36082
G1 X101.087 Y157.174 E43.43408
G1 X100.337 Y156.976 E43.50738
G1 X99.611 Y156.702 E43.58071
G1 X98.918 Y156.355 E43.65395
G1 X98.264 Y155.938 E43.72725
G1 X97.93 Y155.673 E43.76754
G1 X85.229 Y155.673 E44.96778
G1 X84.454 Y155.633 E45.04112
G1 X83.688 Y155.514 E45.11437
G1 X82.938 Y155.316 E45.18767
G1 X82.212 Y155.042 E45.261
G1 X81.519 Y154.695 E45.33424
G1 X80.865 Y154.278 E45.40754
G1 X80.257 Y153.796 E45.48086
G1 X79.805 Y153.366 E45.53982
G1 X79.286 Y152.79 E45.61309
G1 X78.828 Y152.164 E45.68639
G1 X78.438 Y151.493 E45.75973
G1 X78.118 Y150.787 E45.83298
G1 X77.873 Y150.051 E45.90628
G1 X77.705 Y149.293 E45.97965
G1 X77.616 Y148.523 E46.0529
G1 X77.601 Y148.045 E46.09809
G1 X77.601 Y133.295 E47.49197
G1 X77.577 Y132.63 E47.55485
G1 X77.518 Y132.085 E47.60666
G1 X77.429 Y131.596 E47.65363
G1 X77.293 Y131.062 E47.7057
G1 X77.122 Y130.549 E47.7568
G1 X76.912 Y130.043 E47.80857
G1 X76.683 Y129.585 E47.85696
G1 X76.402 Y129.113 E47.90887
G1 X76.094 Y128.67 E47.95986
G1 X75.767 Y128.266 E48.00898
G1 X75.396 Y127.87 E48.06025
G1 X75.011 Y127.511 E48.11
G1 X74.596 Y127.177 E48.16034
G1 X74.143 Y126.861 E48.21254
G1 X73.694 Y126.595 E48.26185
G1 X73.212 Y126.355 E48.31274
G1 X72.706 Y126.145 E48.36451
G1 X72.216 Y125.983 E48.41328
G1 X71.671 Y125.844 E48.46643
G1 X71.165 Y125.754 E48.515
G1 X70.632 Y125.696 E48.56566
G1 X69.955 Y125.672 E48.62968
G1 X69.182 Y125.604 E48.70301
G1 X68.42 Y125.458 E48.77633
G1 X67.678 Y125.233 E48.8496
G1 X66.962 Y124.933 E48.92296
G1 X66.282 Y124.562 E48.99616
G1 X65.643 Y124.122 E49.06948
G1 X64.797 Y123.364 E49.17682
G1 X64.7 Y123.263 E49.19006
G1 X64.192 Y122.677 E49.26335
G1 X63.747 Y122.042 E49.33662
G1 X63.37 Y121.364 E49.40993
G1 X63.065 Y120.651 E49.48322
G1 X62.835 Y119.91 E49.55654
G1 X62.683 Y119.149 E49.62987
G1 X62.602 Y118.051 E49.73391
G1 X62.602 Y103.304 E51.12751
G1 X62.642 Y102.529 E51.20084
G1 X62.761 Y101.763 E51.2741
G1 X62.959 Y101.013 E51.3474
G1 X63.233 Y100.287 E51.42073
G1 X63.58 Y99.594 E51.49397
G1 X63.997 Y98.94 E51.56727
G1 X64.479 Y98.332 E51.64059
G1 X64.883 Y97.907 E51.696
G1 X64.989 Y97.804 E51.70997
G1 X65.572 Y97.293 E51.78323
G1 X66.205 Y96.845 E51.85651
G0 F4050 X66.423 Y97.121
G1 F2700 X67.085 Y96.754 E51.92804
G1 X67.782 Y96.458 E51.9996
G1 X68.506 Y96.237 E52.07114
G1 X69.25 Y96.094 E52.14273
G1 X70.005 Y96.03 E52.21433
G1 X70.412 Y96.028 E52.2528
G1 X71.812 Y96.063 E52.38514
G1 X72.188 Y96.082 E52.42071
G1 X73.696 Y96.199 E52.56365
G1 X74.047 Y96.235 E52.59699
G1 X75.548 Y96.426 E52.73998
G1 X75.903 Y96.481 E52.77393
G1 X77.404 Y96.749 E52.91802
G1 X77.776 Y96.825 E52.9539
G1 X79.261 Y97.172 E53.09801
G1 X79.602 Y97.261 E53.13131
G1 X81.052 Y97.676 E53.27384
G1 X81.396 Y97.784 E53.30791
G1 X82.834 Y98.275 E53.45151
G1 X83.183 Y98.404 E53.48667
G1 X84.594 Y98.969 E53.6303
G1 X84.925 Y99.112 E53.66437
G1 X86.312 Y99.75 E53.80865
G1 X86.634 Y99.907 E53.8425
G1 X87.979 Y100.609 E53.98587
G1 X88.303 Y100.789 E54.0209
G1 X89.599 Y101.553 E54.16307
G1 X89.904 Y101.743 E54.19703
G1 X91.186 Y102.588 E54.34212
G1 X91.484 Y102.796 E54.37647
G1 X92.7 Y103.689 E54.51904
G1 X92.987 Y103.911 E54.55332
G1 X94.172 Y104.877 E54.6978
G1 X94.453 Y105.119 E54.73285
G1 X95.571 Y106.131 E54.87535
G1 X95.731 Y106.283 E54.89621
G1 X95.863 Y105.689 E54.95371
G1 X96.027 Y105.079 E55.0134
G1 X96.292 Y104.244 E55.09619
G1 X96.5 Y103.672 E55.1537
G1 X96.837 Y102.857 E55.23705
G1 X97.111 Y102.273 E55.29801
G1 X97.505 Y101.52 E55.37832
G1 X97.814 Y100.985 E55.4367
G1 X98.289 Y100.241 E55.52012
G1 X98.647 Y99.73 E55.57908
G1 X99.181 Y99.035 E55.6619
G1 X99.59 Y98.55 E55.72186
G1 X100.175 Y97.914 E55.80352
G1 X100.613 Y97.477 E55.86199
G1 X101.247 Y96.897 E55.94319
G1 X101.732 Y96.491 E56.00296
G1 X102.433 Y95.955 E56.08635
G1 X102.943 Y95.599 E56.14513
G1 X103.681 Y95.13 E56.22776
G1 X104.227 Y94.816 E56.28728
G1 X104.987 Y94.422 E56.36818
G1 X105.54 Y94.165 E56.4258
G1 X106.35 Y93.829 E56.50867
G1 X106.958 Y93.608 E56.56981
G1 X107.793 Y93.347 E56.65248
G1 X108.384 Y93.189 E56.71029
G1 X109.229 Y93.002 E56.79207
G1 X109.842 Y92.894 E56.85089
G1 X110.692 Y92.782 E56.93191
G1 X111.329 Y92.727 E56.99233
G1 X112.238 Y92.689 E57.07831
G1 X112.538 Y92.683 E57.10666
G1 X120.372 Y92.683 E57.84698
G1 X121.128 Y92.723 E57.91852
G1 X121.876 Y92.842 E57.99009
G1 X122.607 Y93.04 E58.06166
G1 X123.314 Y93.314 E58.13332
G1 X123.987 Y93.66 E58.20483
G1 X124.62 Y94.076 E58.27641
G1 X125.445 Y94.785 E58.37921
G1 X125.548 Y94.888 E58.39297
G1 X126.055 Y95.451 E58.46457
G1 X126.499 Y96.064 E58.53609
G1 X126.877 Y96.721 E58.60772
G1 X127.183 Y97.413 E58.67923
G1 X127.414 Y98.135 E58.75086
G1 X127.568 Y98.876 E58.82238
G1 X127.65 Y99.961 E58.92521
G1 X127.65 Y110.895 E59.95847
G1 X136.872 Y110.895 E60.82995
G1 X137.628 Y110.935 E60.90149
G1 X138.376 Y111.054 E60.97307
G1 X139.107 Y111.252 E61.04464
G1 X139.814 Y111.526 E61.11629
G1 X140.487 Y111.872 E61.1878
G1 X141.12 Y112.288 E61.25938
G1 X141.945 Y112.997 E61.36218
G1 X142.048 Y113.1 E61.37594
G1 X142.555 Y113.663 E61.44754
G1 X142.999 Y114.276 E61.51907
G1 X143.377 Y114.933 E61.5907
G1 X143.683 Y115.625 E61.6622
G1 X143.914 Y116.347 E61.73383
G1 X144.068 Y117.088 E61.80536
G1 X144.15 Y118.173 E61.90818
G1 X144.15 Y147.917 E64.71899
G1 X144.11 Y148.673 E64.79053
G1 X143.991 Y149.421 E64.8621
G1 X143.793 Y150.152 E64.93367
G1 X143.519 Y150.859 E65.00533
G1 X143.173 Y151.532 E65.07684
G1 X142.757 Y152.165 E65.14842
G1 X142.048 Y152.99 E65.25122
G1 X141.945 Y153.093 E65.26498
G1 X141.382 Y153.6 E65.33658
G1 X140.769 Y154.044 E65.4081
G1 X140.112 Y154.422 E65.47973
G1 X139.42 Y154.728 E65.55124
G1 X138.698 Y154.959 E65.62287
G1 X137.957 Y155.113 E65.69439
G1 X136.872 Y155.195 E65.79722
G1 X122.128 Y155.195 E67.19053
