;FLAVOR:UltiGCode
;TIME:8428
;MATERIAL:40882
;MATERIAL2:0
;NOZZLE_DIAMETER:0.4
;MINX:60.125
;MINY:64.331
;MINZ:0.27
;MAXX:162.875
;MAXY:160.081
;MAXZ:62.97
;Generated with Cura_SteamEngine 4.10.0
M82 ;absolute extrusion mode
G0 F3000 Y50 ;avoid prime blob
G92 E0
G92 E0
G10
;LAYER_COUNT:210
;LAYER:0
M107
G0 F4050 X62.55 Y66.522 Z0.27
;TYPE:SKIRT
G11
G1 F2700 X63.149 Y66.002 E0.07496
G1 X63.798 Y65.546 E0.14992
G1 X64.49 Y65.157 E0.22493
G1 X65.217 Y64.839 E0.29992
G1 X65.973 Y64.596 E0.37496
G1 X66.749 Y64.431 E0.44993
G1 X67.537 Y64.345 E0.52484
G1 X68 Y64.331 E0.56861
G1 X155 Y64.331 E8.79011
G1 X155.792 Y64.371 E8.86505
G1 X156.577 Y64.49 E8.94008
G1 X157.345 Y64.688 E9.01503
G1 X158.09 Y64.963 E9.09008
G1 X158.803 Y65.31 E9.16501
G1 X159.478 Y65.728 E9.24004
G1 X160.107 Y66.211 E9.31498
G1 X160.684 Y66.756 E9.38999
G1 X161.204 Y67.355 E9.46495
G1 X161.66 Y68.004 E9.5399
G1 X162.049 Y68.696 E9.61492
G1 X162.367 Y69.423 E9.68991
G1 X162.61 Y70.179 E9.76495
G1 X162.775 Y70.955 E9.83992
G1 X162.861 Y71.743 E9.91483
G1 X162.875 Y72.206 E9.9586
G1 X162.875 Y152.206 E17.5186
G1 X162.835 Y152.998 E17.59354
G1 X162.716 Y153.783 E17.66857
G1 X162.518 Y154.551 E17.74352
G1 X162.243 Y155.296 E17.81857
G1 X161.896 Y156.009 E17.8935
G1 X161.478 Y156.684 E17.96853
G1 X160.995 Y157.313 E18.04347
G1 X160.45 Y157.89 E18.11848
G1 X159.851 Y158.41 E18.19344
G1 X159.202 Y158.866 E18.26839
G1 X158.51 Y159.255 E18.34341
G1 X157.783 Y159.573 E18.4184
G1 X157.027 Y159.816 E18.49344
G1 X156.251 Y159.981 E18.56841
G1 X155.463 Y160.067 E18.64332
G1 X155 Y160.081 E18.68709
G1 X68 Y160.081 E26.90859
G1 X67.208 Y160.041 E26.98353
G1 X66.423 Y159.922 E27.05856
G1 X65.655 Y159.724 E27.13351
G1 X64.91 Y159.449 E27.20856
G1 X64.197 Y159.102 E27.28349
G1 X63.522 Y158.684 E27.35852
G1 X62.893 Y158.201 E27.43346
G1 X62.316 Y157.656 E27.50847
G1 X61.796 Y157.057 E27.58343
G1 X61.34 Y156.408 E27.65838
G1 X60.951 Y155.716 E27.7334
G1 X60.633 Y154.989 E27.80839
G1 X60.39 Y154.233 E27.88343
G1 X60.225 Y153.457 E27.9584
G1 X60.139 Y152.669 E28.03331
G1 X60.125 Y152.206 E28.07708
G1 X60.125 Y72.206 E35.63708
G1 X60.165 Y71.414 E35.71202
G1 X60.284 Y70.629 E35.78705
G1 X60.482 Y69.861 E35.862
G1 X60.757 Y69.116 E35.93704
G1 X61.104 Y68.403 E36.01198
G1 X61.522 Y67.728 E36.08701
G1 X62.005 Y67.099 E36.16195
G1 X62.55 Y66.522 E36.23695
G0 F4050 X62.894 Y66.679
G1 F2700 X63.49 Y66.182 E36.31029
G1 X64.134 Y65.75 E36.38357
G1 X64.819 Y65.387 E36.45683
G1 X65.538 Y65.095 E36.53017
G1 X66.283 Y64.88 E36.60344
G1 X67.046 Y64.742 E36.67672
G1 X68 Y64.681 E36.76705
G1 X155 Y64.681 E44.98855
G1 X155.775 Y64.721 E45.06189
G1 X156.541 Y64.84 E45.13514
G1 X157.291 Y65.038 E45.20845
G1 X158.017 Y65.312 E45.28178
G1 X158.71 Y65.659 E45.35502
G1 X159.364 Y66.076 E45.42831
G1 X159.972 Y66.558 E45.50163
G1 X160.527 Y67.1 E45.57494
G1 X161.024 Y67.696 E45.64828
G1 X161.456 Y68.34 E45.72156
G1 X161.819 Y69.025 E45.79482
G1 X162.111 Y69.744 E45.86815
G1 X162.326 Y70.489 E45.94143
G1 X162.464 Y71.252 E46.0147
G1 X162.525 Y72.206 E46.10504
G1 X162.525 Y152.206 E53.66504
G1 X162.485 Y152.981 E53.73838
G1 X162.366 Y153.747 E53.81163
G1 X162.168 Y154.497 E53.88493
G1 X161.894 Y155.223 E53.95826
G1 X161.547 Y155.916 E54.0315
G1 X161.13 Y156.57 E54.1048
G1 X160.648 Y157.178 E54.17812
G1 X160.106 Y157.733 E54.25143
G1 X159.51 Y158.23 E54.32477
G1 X158.866 Y158.662 E54.39805
G1 X158.181 Y159.025 E54.47131
G1 X157.462 Y159.317 E54.54464
G1 X156.717 Y159.532 E54.61792
G1 X155.954 Y159.67 E54.69119
G1 X155 Y159.731 E54.78153
G1 X68 Y159.731 E63.00303
G1 X67.225 Y159.691 E63.07636
G1 X66.459 Y159.572 E63.14962
G1 X65.709 Y159.374 E63.22292
G1 X64.983 Y159.1 E63.29625
G1 X64.29 Y158.753 E63.36949
G1 X63.636 Y158.336 E63.44279
G1 X63.028 Y157.854 E63.51611
G1 X62.473 Y157.312 E63.58942
G1 X61.976 Y156.716 E63.66275
G1 X61.544 Y156.072 E63.73604
G1 X61.181 Y155.387 E63.8093
G1 X60.889 Y154.668 E63.88263
G1 X60.674 Y153.923 E63.95591
G1 X60.536 Y153.16 E64.02918
G1 X60.475 Y152.206 E64.11952
G1 X60.475 Y72.206 E71.67952
G1 X60.515 Y71.431 E71.75285
G1 X60.634 Y70.665 E71.82611
G1 X60.832 Y69.915 E71.89941
G1 X61.106 Y69.189 E71.97274
G1 X61.453 Y68.496 E72.04598
G1 X61.87 Y67.842 E72.11928
G1 X62.352 Y67.234 E72.1926
G1 X62.894 Y66.679 E72.26591
G0 F4050 X63.237 Y66.84
G1 F2700 X63.829 Y66.368 E72.33746
G1 X64.468 Y65.961 E72.40905
G1 X65.146 Y65.623 E72.48064
G1 X65.855 Y65.359 E72.55214
G1 X66.589 Y65.171 E72.62374
G1 X67.338 Y65.062 E72.69526
G1 X68 Y65.031 E72.75789
G1 X155 Y65.031 E80.97939
G1 X155.756 Y65.071 E81.05093
G1 X156.504 Y65.19 E81.12251
G1 X157.235 Y65.388 E81.19408
G1 X157.942 Y65.662 E81.26573
G1 X158.615 Y66.008 E81.33724
G1 X159.248 Y66.424 E81.40882
G1 X159.834 Y66.904 E81.4804
G1 X160.366 Y67.443 E81.55197
G1 X160.838 Y68.035 E81.62352
G1 X161.245 Y68.674 E81.69511
G1 X161.583 Y69.352 E81.76671
G1 X161.847 Y70.061 E81.8382
G1 X162.035 Y70.795 E81.9098
G1 X162.144 Y71.544 E81.98133
G1 X162.175 Y72.206 E82.04396
G1 X162.175 Y152.206 E89.60396
G1 X162.135 Y152.962 E89.6755
G1 X162.016 Y153.71 E89.74707
G1 X161.818 Y154.441 E89.81864
G1 X161.544 Y155.148 E89.8903
G1 X161.198 Y155.821 E89.96181
G1 X160.782 Y156.454 E90.03339
G1 X160.302 Y157.04 E90.10497
G1 X159.763 Y157.572 E90.17654
G1 X159.171 Y158.044 E90.24809
G1 X158.532 Y158.451 E90.31968
G1 X157.854 Y158.789 E90.39127
G1 X157.145 Y159.053 E90.46277
G1 X156.411 Y159.241 E90.53437
G1 X155.662 Y159.35 E90.60589
G1 X155 Y159.381 E90.66852
G1 X68 Y159.381 E98.89002
G1 X67.244 Y159.341 E98.96156
G1 X66.496 Y159.222 E99.03314
G1 X65.765 Y159.024 E99.10471
G1 X65.058 Y158.75 E99.17636
G1 X64.385 Y158.404 E99.24787
G1 X63.752 Y157.988 E99.31945
G1 X63.166 Y157.508 E99.39104
G1 X62.634 Y156.969 E99.4626
G1 X62.162 Y156.377 E99.53415
G1 X61.755 Y155.738 E99.60575
G1 X61.417 Y155.06 E99.67734
G1 X61.153 Y154.351 E99.74883
G1 X60.965 Y153.617 E99.82043
G1 X60.856 Y152.868 E99.89196
G1 X60.825 Y152.206 E99.95459
G1 X60.825 Y72.206 E107.51459
G1 X60.865 Y71.45 E107.58613
G1 X60.984 Y70.702 E107.6577
G1 X61.182 Y69.971 E107.72927
G1 X61.456 Y69.264 E107.80093
G1 X61.802 Y68.591 E107.87244
G1 X62.218 Y67.958 E107.94402
G1 X62.698 Y67.372 E108.0156
G1 X63.237 Y66.84 E108.08717
G0 F4050 X63.043 Y67.514
G1 F2700 X63.579 Y67.006 E108.15695
G1 X64.167 Y66.559 E108.22675
G1 X64.8 Y66.178 E108.29657
G1 X65.47 Y65.867 E108.36638
G1 X66.17 Y65.631 E108.43618
G1 X66.891 Y65.472 E108.50596
G1 X67.626 Y65.391 E108.57583
G1 X68 Y65.381 E108.61119
G1 X155 Y65.381 E116.83269
G1 X155.738 Y65.421 E116.90253
G1 X156.466 Y65.54 E116.97224
G1 X157.178 Y65.738 E117.04208
G1 X157.864 Y66.011 E117.11185
G1 X158.517 Y66.357 E117.18169
G1 X159.129 Y66.771 E117.25151
G1 X159.692 Y67.249 E117.3213
G1 X160.2 Y67.785 E117.39109
G1 X160.647 Y68.373 E117.46089
G1 X161.028 Y69.006 E117.53071
G1 X161.339 Y69.676 E117.60051
G1 X161.575 Y70.376 E117.67032
G1 X161.734 Y71.097 E117.74009
G1 X161.815 Y71.832 E117.80997
G1 X161.825 Y72.206 E117.84532
G1 X161.825 Y152.206 E125.40532
G1 X161.785 Y152.944 E125.47517
G1 X161.666 Y153.672 E125.54488
G1 X161.468 Y154.384 E125.61471
G1 X161.195 Y155.07 E125.68449
G1 X160.849 Y155.723 E125.75432
G1 X160.435 Y156.335 E125.82415
G1 X159.957 Y156.898 E125.89394
G1 X159.421 Y157.406 E125.96372
G1 X158.833 Y157.853 E126.03352
G1 X158.2 Y158.234 E126.10334
G1 X157.53 Y158.545 E126.17315
G1 X156.83 Y158.781 E126.24295
G1 X156.109 Y158.94 E126.31273
G1 X155.374 Y159.021 E126.3826
G1 X155 Y159.031 E126.41796
G1 X68 Y159.031 E134.63946
G1 X67.262 Y158.991 E134.7093
G1 X66.534 Y158.872 E134.77901
G1 X65.822 Y158.674 E134.84885
G1 X65.136 Y158.401 E134.91862
G1 X64.483 Y158.055 E134.98846
G1 X63.871 Y157.641 E135.05828
G1 X63.308 Y157.163 E135.12807
G1 X62.8 Y156.627 E135.19786
G1 X62.353 Y156.039 E135.26766
G1 X61.972 Y155.406 E135.33748
G1 X61.661 Y154.736 E135.40728
G1 X61.425 Y154.036 E135.47709
G1 X61.266 Y153.315 E135.54686
G1 X61.185 Y152.58 E135.61674
G1 X61.175 Y152.206 E135.65209
G1 X61.175 Y72.206 E143.21209
G1 X61.215 Y71.468 E143.28194
G1 X61.334 Y70.74 E143.35165
G1 X61.532 Y70.028 E143.42148
G1 X61.805 Y69.342 E143.49126
G1 X62.151 Y68.689 E143.56109
G1 X62.565 Y68.077 E143.63092
G1 X63.043 Y67.514 E143.70071
G0 F4050 X63.389 Y67.661
G1 F2700 X63.921 Y67.177 E143.76867
G1 X64.504 Y66.756 E143.83663
G1 X65.131 Y66.402 E143.90467
G1 X65.792 Y66.119 E143.97262
G1 X66.481 Y65.912 E144.04061
G1 X67.189 Y65.782 E144.10863
G1 X68 Y65.731 E144.18542
G1 X155 Y65.731 E152.40692
G1 X155.718 Y65.771 E152.47488
G1 X156.428 Y65.89 E152.54291
G1 X157.12 Y66.088 E152.61093
G1 X157.785 Y66.361 E152.67886
G1 X158.417 Y66.706 E152.7469
G1 X159.006 Y67.119 E152.81488
G1 X159.545 Y67.595 E152.88284
G1 X160.029 Y68.127 E152.95081
G1 X160.45 Y68.71 E153.01876
G1 X160.804 Y69.337 E153.08681
G1 X161.087 Y69.998 E153.15475
G1 X161.294 Y70.687 E153.22274
G1 X161.424 Y71.395 E153.29076
G1 X161.475 Y72.206 E153.36755
G1 X161.475 Y152.206 E160.92755
G1 X161.435 Y152.924 E160.99551
G1 X161.316 Y153.634 E161.06354
G1 X161.118 Y154.326 E161.13156
G1 X160.845 Y154.991 E161.19949
G1 X160.5 Y155.623 E161.26754
G1 X160.087 Y156.212 E161.33552
G1 X159.611 Y156.751 E161.40347
G1 X159.079 Y157.235 E161.47144
G1 X158.496 Y157.656 E161.53939
G1 X157.869 Y158.01 E161.60744
G1 X157.208 Y158.293 E161.67538
G1 X156.519 Y158.5 E161.74337
G1 X155.811 Y158.63 E161.81139
G1 X155 Y158.681 E161.88819
G1 X68 Y158.681 E170.10969
G1 X67.282 Y158.641 E170.17764
G1 X66.572 Y158.522 E170.24567
G1 X65.88 Y158.324 E170.31369
G1 X65.215 Y158.051 E170.38162
G1 X64.583 Y157.706 E170.44967
G1 X63.994 Y157.293 E170.51765
G1 X63.455 Y156.817 E170.5856
G1 X62.971 Y156.285 E170.65357
G1 X62.55 Y155.702 E170.72152
G1 X62.196 Y155.075 E170.78957
G1 X61.913 Y154.414 E170.85752
G1 X61.706 Y153.725 E170.9255
G1 X61.576 Y153.017 E170.99353
G1 X61.525 Y152.206 E171.07032
G1 X61.525 Y72.206 E178.63032
G1 X61.565 Y71.488 E178.69827
G1 X61.684 Y70.778 E178.7663
G1 X61.882 Y70.086 E178.83432
G1 X62.155 Y69.421 E178.90225
G1 X62.5 Y68.789 E178.9703
G1 X62.913 Y68.2 E179.03828
G1 X63.389 Y67.661 E179.10623
G0 F4050 X63.733 Y67.812
G1 F2700 X64.262 Y67.354 E179.17235
G1 X64.84 Y66.959 E179.23851
G1 X65.459 Y66.633 E179.30462
G1 X66.111 Y66.379 E179.37075
G1 X66.788 Y66.202 E179.43688
G1 X67.481 Y66.103 E179.50303
G1 X68 Y66.081 E179.55212
G1 X155 Y66.081 E187.77362
G1 X155.699 Y66.121 E187.83978
G1 X156.388 Y66.24 E187.90586
G1 X157.059 Y66.438 E187.97197
G1 X157.704 Y66.71 E188.03812
G1 X158.313 Y67.054 E188.10422
G1 X158.879 Y67.466 E188.17037
G1 X159.394 Y67.939 E188.23645
G1 X159.852 Y68.468 E188.30258
G1 X160.247 Y69.046 E188.36873
G1 X160.573 Y69.665 E188.43485
G1 X160.827 Y70.317 E188.50097
G1 X161.004 Y70.994 E188.5671
G1 X161.103 Y71.687 E188.63325
G1 X161.125 Y72.206 E188.68234
G1 X161.125 Y152.206 E196.24234
G1 X161.085 Y152.905 E196.3085
G1 X160.966 Y153.594 E196.37458
G1 X160.768 Y154.265 E196.44069
G1 X160.496 Y154.91 E196.50684
G1 X160.152 Y155.519 E196.57294
G1 X159.74 Y156.085 E196.63909
G1 X159.267 Y156.6 E196.70517
G1 X158.738 Y157.058 E196.7713
G1 X158.16 Y157.453 E196.83745
G1 X157.541 Y157.779 E196.90357
G1 X156.889 Y158.033 E196.96969
G1 X156.212 Y158.21 E197.03582
G1 X155.519 Y158.309 E197.10197
G1 X155 Y158.331 E197.15106
G1 X68 Y158.331 E205.37256
G1 X67.301 Y158.291 E205.43872
G1 X66.612 Y158.172 E205.5048
G1 X65.941 Y157.974 E205.57091
G1 X65.296 Y157.702 E205.63706
G1 X64.687 Y157.358 E205.70316
G1 X64.121 Y156.946 E205.76932
G1 X63.606 Y156.473 E205.8354
G1 X63.148 Y155.944 E205.90152
G1 X62.753 Y155.366 E205.96768
G1 X62.427 Y154.747 E206.03379
G1 X62.173 Y154.095 E206.09991
G1 X61.996 Y153.418 E206.16604
G1 X61.897 Y152.725 E206.23219
G1 X61.875 Y152.206 E206.28128
G1 X61.875 Y72.206 E213.84128
G1 X61.915 Y71.507 E213.90745
G1 X62.034 Y70.818 E213.97352
G1 X62.232 Y70.147 E214.03963
G1 X62.504 Y69.502 E214.10578
G1 X62.848 Y68.893 E214.17188
G1 X63.26 Y68.327 E214.23804
G1 X63.733 Y67.812 E214.30412
G0 F4050 X64.077 Y67.968
G1 F2700 X64.602 Y67.537 E214.36831
G1 X65.174 Y67.17 E214.43253
G1 X65.785 Y66.873 E214.49673
G1 X66.427 Y66.649 E214.56098
G1 X67.09 Y66.503 E214.62514
G1 X68 Y66.431 E214.7114
G1 X155 Y66.431 E222.9329
G1 X155.678 Y66.471 E222.99709
G1 X156.347 Y66.59 E223.0613
G1 X156.997 Y66.787 E223.12548
G1 X157.62 Y67.059 E223.18972
G1 X158.206 Y67.403 E223.25394
G1 X158.748 Y67.813 E223.31816
G1 X159.238 Y68.283 E223.38232
G1 X159.669 Y68.808 E223.44651
G1 X160.036 Y69.38 E223.51073
G1 X160.333 Y69.991 E223.57493
G1 X160.557 Y70.633 E223.63919
G1 X160.703 Y71.296 E223.70334
G1 X160.775 Y72.206 E223.78961
G1 X160.775 Y152.206 E231.34961
G1 X160.735 Y152.884 E231.41379
G1 X160.616 Y153.553 E231.478
G1 X160.419 Y154.203 E231.54219
G1 X160.147 Y154.826 E231.60643
G1 X159.803 Y155.412 E231.67064
G1 X159.393 Y155.954 E231.73486
G1 X158.923 Y156.444 E231.79903
G1 X158.398 Y156.875 E231.86322
G1 X157.826 Y157.242 E231.92744
G1 X157.215 Y157.539 E231.99164
G1 X156.573 Y157.763 E232.05589
G1 X155.91 Y157.909 E232.12005
G1 X155 Y157.981 E232.20631
G1 X68 Y157.981 E240.42781
G1 X67.322 Y157.941 E240.492
G1 X66.653 Y157.822 E240.55621
G1 X66.003 Y157.625 E240.62039
G1 X65.38 Y157.353 E240.68463
G1 X64.794 Y157.009 E240.74885
G1 X64.252 Y156.599 E240.81307
G1 X63.762 Y156.129 E240.87723
G1 X63.331 Y155.604 E240.94142
G1 X62.964 Y155.032 E241.00564
G1 X62.667 Y154.421 E241.06984
G1 X62.443 Y153.779 E241.1341
G1 X62.297 Y153.116 E241.19825
G1 X62.225 Y152.206 E241.28452
G1 X62.225 Y72.206 E248.84452
G1 X62.265 Y71.528 E248.9087
G1 X62.384 Y70.859 E248.97291
G1 X62.581 Y70.209 E249.0371
G1 X62.853 Y69.586 E249.10134
G1 X63.197 Y69 E249.16555
G1 X63.607 Y68.458 E249.22977
G1 X64.077 Y67.968 E249.29394
G0 F4050 X64.42 Y68.13
G1 F2700 X64.941 Y67.726 E249.35624
G1 X65.506 Y67.388 E249.41846
G1 X66.108 Y67.122 E249.48065
G1 X66.738 Y66.93 E249.54289
G1 X67.386 Y66.816 E249.60507
G1 X68 Y66.781 E249.66318
G1 X155 Y66.781 E257.88468
G1 X155.657 Y66.821 E257.94688
G1 X156.305 Y66.94 E258.00914
G1 X156.933 Y67.137 E258.07134
G1 X157.533 Y67.409 E258.1336
G1 X158.096 Y67.751 E258.19585
G1 X158.613 Y68.159 E258.25808
G1 X159.076 Y68.626 E258.32023
G1 X159.48 Y69.147 E258.38253
G1 X159.818 Y69.712 E258.44475
G1 X160.084 Y70.314 E258.50694
G1 X160.276 Y70.944 E258.56918
G1 X160.39 Y71.592 E258.63136
G1 X160.425 Y72.206 E258.68948
G1 X160.425 Y152.206 E266.24948
G1 X160.385 Y152.863 E266.31168
G1 X160.266 Y153.511 E266.37394
G1 X160.069 Y154.139 E266.43614
G1 X159.797 Y154.739 E266.49839
G1 X159.455 Y155.302 E266.56064
G1 X159.047 Y155.819 E266.62288
G1 X158.58 Y156.282 E266.68502
G1 X158.059 Y156.686 E266.74732
G1 X157.494 Y157.024 E266.80954
G1 X156.892 Y157.29 E266.87174
G1 X156.262 Y157.482 E266.93398
G1 X155.614 Y157.596 E266.99615
G1 X155 Y157.631 E267.05427
G1 X68 Y157.631 E275.27577
G1 X67.343 Y157.591 E275.33797
G1 X66.695 Y157.472 E275.40023
G1 X66.067 Y157.275 E275.46243
G1 X65.467 Y157.003 E275.52468
G1 X64.904 Y156.661 E275.58693
G1 X64.387 Y156.253 E275.64917
G1 X63.924 Y155.786 E275.71131
G1 X63.52 Y155.265 E275.77362
G1 X63.182 Y154.7 E275.83583
G1 X62.916 Y154.098 E275.89803
G1 X62.724 Y153.468 E275.96027
G1 X62.61 Y152.82 E276.02244
G1 X62.575 Y152.206 E276.08056
G1 X62.575 Y72.206 E283.64056
G1 X62.615 Y71.549 E283.70276
G1 X62.734 Y70.901 E283.76502
G1 X62.931 Y70.273 E283.82722
G1 X63.203 Y69.673 E283.88947
G1 X63.545 Y69.11 E283.95173
G1 X63.953 Y68.593 E284.01396
G1 X64.42 Y68.13 E284.07611
G0 F4050 X64.299 Y68.734
G1 F2700 X64.763 Y68.298 E284.13628
G1 X65.278 Y67.923 E284.19648
G1 X65.835 Y67.616 E284.25658
G1 X66.427 Y67.381 E284.31677
G1 X67.044 Y67.222 E284.37698
G1 X67.676 Y67.141 E284.4372
G1 X68 Y67.131 E284.46783
G1 X155 Y67.131 E292.68933
G1 X155.636 Y67.171 E292.74955
G1 X156.261 Y67.29 E292.80967
G1 X156.867 Y67.487 E292.86989
G1 X157.443 Y67.758 E292.93004
G1 X157.981 Y68.099 E292.99024
G1 X158.472 Y68.505 E293.05045
G1 X158.908 Y68.969 E293.11061
G1 X159.283 Y69.484 E293.17082
G1 X159.59 Y70.041 E293.23092
G1 X159.825 Y70.633 E293.29111
G1 X159.984 Y71.25 E293.35132
G1 X160.065 Y71.882 E293.41153
G1 X160.075 Y72.206 E293.44217
