;FLAVOR:UltiGCode
;TIME:2845
;MATERIAL:12965
;MATERIAL2:0
;NOZZLE_DIAMETER:0.4
;MINX:82.625
;MINY:79.125
;MINZ:0.27
;MAXX:140.375
;MAXY:143.875
;MAXZ:44.97
;Generated with Cura_SteamEngine 4.10.0
M82 ;absolute extrusion mode
G0 F3000 Y50 ;avoid prime blob
G92 E0
G92 E0
G10
;LAYER_COUNT:150
;LAYER:0
M107
G0 F4500 X85.05 Y81.316 Z0.27
;TYPE:SKIRT
G11
G1 F2880 X85.649 Y80.796 E0.07496
G1 X86.298 Y80.34 E0.14992
G1 X86.99 Y79.951 E0.22493
G1 X87.717 Y79.633 E0.29992
G1 X88.473 Y79.39 E0.37496
G1 X89.249 Y79.225 E0.44993
G1 X90.037 Y79.139 E0.52484
G1 X90.5 Y79.125 E0.56861
G1 X103.5 Y79.125 E1.79711
G1 X104.295 Y79.165 E1.87234
G1 X105 Y79.125 E1.93907
G1 X118 Y79.125 E3.16757
G1 X118.795 Y79.165 E3.24279
G1 X119.5 Y79.125 E3.30952
G1 X132.5 Y79.125 E4.53802
G1 X133.292 Y79.165 E4.61296
G1 X134.077 Y79.284 E4.68799
G1 X134.845 Y79.482 E4.76294
G1 X135.59 Y79.757 E4.83798
G1 X136.303 Y80.104 E4.91292
G1 X136.978 Y80.522 E4.98795
G1 X137.607 Y81.005 E5.06289
G1 X138.184 Y81.55 E5.13789
G1 X138.704 Y82.149 E5.21285
G1 X139.16 Y82.798 E5.28781
G1 X139.549 Y83.49 E5.36283
G1 X139.867 Y84.217 E5.43781
G1 X140.11 Y84.973 E5.51285
G1 X140.275 Y85.749 E5.58783
G1 X140.361 Y86.537 E5.66273
G1 X140.375 Y87 E5.70651
G1 X140.375 Y100 E6.93501
G1 X140.335 Y100.792 E7.00995
G1 X140.216 Y101.577 E7.08498
G1 X140.018 Y102.345 E7.15993
G1 X139.743 Y103.09 E7.23497
G1 X139.396 Y103.803 E7.30991
G1 X138.978 Y104.478 E7.38493
G1 X138.495 Y105.107 E7.45988
G1 X137.95 Y105.684 E7.53488
G1 X137.351 Y106.204 E7.60984
G1 X136.875 Y106.538 E7.66479
G1 X136.875 Y121.5 E9.0787
G1 X136.835 Y122.292 E9.15364
G1 X136.716 Y123.077 E9.22867
G1 X136.518 Y123.845 E9.30362
G1 X136.243 Y124.59 E9.37867
G1 X135.896 Y125.303 E9.4536
G1 X135.478 Y125.978 E9.52863
G1 X134.995 Y126.607 E9.60357
G1 X134.45 Y127.184 E9.67857
G1 X133.851 Y127.704 E9.75353
G1 X133.202 Y128.16 E9.82849
G1 X132.51 Y128.549 E9.90351
G1 X131.783 Y128.867 E9.97849
G1 X131.027 Y129.11 E10.05354
G1 X130.251 Y129.275 E10.12851
G1 X129.463 Y129.361 E10.20342
G1 X129 Y129.375 E10.24719
G1 X125.875 Y129.375 E10.5425
G1 X125.875 Y136 E11.16856
G1 X125.835 Y136.792 E11.2435
G1 X125.716 Y137.577 E11.31853
G1 X125.518 Y138.345 E11.39348
G1 X125.243 Y139.09 E11.46853
G1 X124.896 Y139.803 E11.54346
G1 X124.478 Y140.478 E11.61849
G1 X123.995 Y141.107 E11.69343
G1 X123.45 Y141.684 E11.76844
G1 X122.851 Y142.204 E11.8434
G1 X122.202 Y142.66 E11.91835
G1 X121.51 Y143.049 E11.99337
G1 X120.783 Y143.367 E12.06836
G1 X120.027 Y143.61 E12.1434
G1 X119.251 Y143.775 E12.21837
G1 X118.463 Y143.861 E12.29328
G1 X118 Y143.875 E12.33705
G1 X105 Y143.875 E13.56555
G1 X104.208 Y143.835 E13.64049
G1 X103.423 Y143.716 E13.71552
G1 X102.655 Y143.518 E13.79047
G1 X101.91 Y143.243 E13.86552
G1 X101.197 Y142.896 E13.94045
G1 X100.522 Y142.478 E14.01548
G1 X99.893 Y141.995 E14.09042
G1 X99.316 Y141.45 E14.16543
G1 X98.796 Y140.851 E14.24039
G1 X98.34 Y140.202 E14.31534
G1 X97.951 Y139.51 E14.39036
G1 X97.633 Y138.783 E14.46535
G1 X97.39 Y138.027 E14.54039
G1 X97.225 Y137.251 E14.61536
G1 X97.139 Y136.463 E14.69027
G1 X97.125 Y136 E14.73404
G1 X97.125 Y129.375 E15.3601
G1 X94 Y129.375 E15.65542
G1 X93.208 Y129.335 E15.73036
G1 X92.423 Y129.216 E15.80539
G1 X91.655 Y129.018 E15.88034
G1 X90.91 Y128.743 E15.95538
G1 X90.197 Y128.396 E16.03032
G1 X89.522 Y127.978 E16.10534
G1 X88.893 Y127.495 E16.18029
G1 X88.316 Y126.95 E16.25529
G1 X87.796 Y126.351 E16.33025
G1 X87.34 Y125.702 E16.40521
G1 X86.951 Y125.01 E16.48022
G1 X86.633 Y124.283 E16.55521
G1 X86.39 Y123.527 E16.63025
G1 X86.225 Y122.751 E16.70522
G1 X86.139 Y121.963 E16.78013
G1 X86.125 Y121.5 E16.8239
G1 X86.125 Y106.542 E18.23744
G1 X86.022 Y106.478 E18.2489
G1 X85.393 Y105.995 E18.32384
G1 X84.816 Y105.45 E18.39884
G1 X84.296 Y104.851 E18.4738
G1 X83.84 Y104.202 E18.54876
G1 X83.451 Y103.51 E18.62378
G1 X83.133 Y102.783 E18.69876
G1 X82.89 Y102.027 E18.7738
G1 X82.725 Y101.251 E18.84878
G1 X82.639 Y100.463 E18.92368
G1 X82.625 Y100 E18.96746
G1 X82.625 Y87 E20.19596
G1 X82.665 Y86.208 E20.2709
G1 X82.784 Y85.423 E20.34593
G1 X82.982 Y84.655 E20.42088
G1 X83.257 Y83.91 E20.49592
G1 X83.604 Y83.197 E20.57086
G1 X84.022 Y82.522 E20.64588
G1 X84.505 Y81.893 E20.72083
G1 X85.05 Y81.316 E20.79583
G0 F4500 X85.394 Y81.473
G1 F2880 X85.99 Y80.976 E20.86917
G1 X86.634 Y80.544 E20.94245
G1 X87.319 Y80.181 E21.01571
G1 X88.038 Y79.889 E21.08904
G1 X88.783 Y79.674 E21.16232
G1 X89.546 Y79.536 E21.23559
G1 X90.5 Y79.475 E21.32593
G1 X103.5 Y79.475 E22.55443
G1 X104.275 Y79.515 E22.62776
G1 X104.304 Y79.52 E22.63055
G1 X105 Y79.475 E22.69646
G1 X118 Y79.475 E23.92496
G1 X118.775 Y79.515 E23.99829
G1 X118.804 Y79.52 E24.00107
G1 X119.5 Y79.475 E24.06698
G1 X132.5 Y79.475 E25.29548
G1 X133.275 Y79.515 E25.36882
G1 X134.041 Y79.634 E25.44207
G1 X134.791 Y79.832 E25.51537
G1 X135.517 Y80.106 E25.5887
G1 X136.21 Y80.453 E25.66194
G1 X136.864 Y80.87 E25.73524
G1 X137.472 Y81.352 E25.80856
G1 X138.027 Y81.894 E25.88187
G1 X138.524 Y82.49 E25.95521
G1 X138.956 Y83.134 E26.02849
G1 X139.319 Y83.819 E26.10175
G1 X139.611 Y84.538 E26.17508
G1 X139.826 Y85.283 E26.24836
G1 X139.964 Y86.046 E26.32163
G1 X140.025 Y87 E26.41197
G1 X140.025 Y100 E27.64047
G1 X139.985 Y100.775 E27.7138
G1 X139.866 Y101.541 E27.78706
G1 X139.668 Y102.291 E27.86036
G1 X139.394 Y103.017 E27.93369
G1 X139.047 Y103.71 E28.00693
G1 X138.63 Y104.364 E28.08023
G1 X138.148 Y104.972 E28.15355
G1 X137.606 Y105.527 E28.22686
G1 X137.01 Y106.024 E28.30019
G1 X136.525 Y106.349 E28.35536
G1 X136.525 Y121.5 E29.78713
G1 X136.485 Y122.275 E29.86047
G1 X136.366 Y123.041 E29.93372
G1 X136.168 Y123.791 E30.00703
G1 X135.894 Y124.517 E30.08036
G1 X135.547 Y125.21 E30.1536
G1 X135.13 Y125.864 E30.22689
G1 X134.648 Y126.472 E30.30022
G1 X134.106 Y127.027 E30.37352
G1 X133.51 Y127.524 E30.44686
G1 X132.866 Y127.956 E30.52014
G1 X132.181 Y128.319 E30.5934
G1 X131.462 Y128.611 E30.66674
G1 X130.717 Y128.826 E30.74001
G1 X129.954 Y128.964 E30.81329
G1 X129 Y129.025 E30.90362
G1 X125.525 Y129.025 E31.23201
G1 X125.525 Y136 E31.89115
G1 X125.485 Y136.775 E31.96448
G1 X125.366 Y137.541 E32.03774
G1 X125.168 Y138.291 E32.11104
G1 X124.894 Y139.017 E32.18437
G1 X124.547 Y139.71 E32.25761
G1 X124.13 Y140.364 E32.33091
G1 X123.648 Y140.972 E32.40423
G1 X123.106 Y141.527 E32.47754
G1 X122.51 Y142.024 E32.55087
G1 X121.866 Y142.456 E32.62415
G1 X121.181 Y142.819 E32.69741
G1 X120.462 Y143.111 E32.77075
G1 X119.717 Y143.326 E32.84402
G1 X118.954 Y143.464 E32.9173
G1 X118 Y143.525 E33.00764
G1 X105 Y143.525 E34.23614
G1 X104.225 Y143.485 E34.30947
G1 X103.459 Y143.366 E34.38273
G1 X102.709 Y143.168 E34.45603
G1 X101.983 Y142.894 E34.52936
G1 X101.29 Y142.547 E34.6026
G1 X100.636 Y142.13 E34.6759
G1 X100.028 Y141.648 E34.74922
G1 X99.473 Y141.106 E34.82253
G1 X98.976 Y140.51 E34.89586
G1 X98.544 Y139.866 E34.96914
G1 X98.181 Y139.181 E35.0424
G1 X97.889 Y138.462 E35.11574
G1 X97.674 Y137.717 E35.18901
G1 X97.536 Y136.954 E35.26229
G1 X97.475 Y136 E35.35262
G1 X97.475 Y129.025 E36.01176
G1 X94 Y129.025 E36.34015
G1 X93.225 Y128.985 E36.41348
G1 X92.459 Y128.866 E36.48674
G1 X91.709 Y128.668 E36.56004
G1 X90.983 Y128.394 E36.63337
G1 X90.29 Y128.047 E36.70661
G1 X89.636 Y127.63 E36.77991
G1 X89.028 Y127.148 E36.85323
G1 X88.473 Y126.606 E36.92654
G1 X87.976 Y126.01 E36.99987
G1 X87.544 Y125.366 E37.07316
G1 X87.181 Y124.681 E37.14642
G1 X86.889 Y123.962 E37.21975
G1 X86.674 Y123.217 E37.29303
G1 X86.536 Y122.454 E37.3663
G1 X86.475 Y121.5 E37.45664
G1 X86.475 Y106.346 E38.88869
G1 X86.136 Y106.13 E38.92668
G1 X85.528 Y105.648 E39
G1 X84.973 Y105.106 E39.0733
G1 X84.476 Y104.51 E39.14664
G1 X84.044 Y103.866 E39.21992
G1 X83.681 Y103.181 E39.29318
G1 X83.389 Y102.462 E39.36652
G1 X83.174 Y101.717 E39.43979
G1 X83.036 Y100.954 E39.51307
G1 X82.975 Y100 E39.6034
G1 X82.975 Y87 E40.8319
G1 X83.015 Y86.225 E40.90524
G1 X83.134 Y85.459 E40.97849
G1 X83.332 Y84.709 E41.0518
G1 X83.606 Y83.983 E41.12513
G1 X83.953 Y83.29 E41.19837
G1 X84.37 Y82.636 E41.27166
G1 X84.852 Y82.028 E41.34498
G1 X85.394 Y81.473 E41.41829
G0 F4500 X85.737 Y81.634
G1 F2880 X86.329 Y81.162 E41.48984
G1 X86.968 Y80.755 E41.56144
G1 X87.646 Y80.417 E41.63303
G1 X88.355 Y80.153 E41.70452
G1 X89.089 Y79.965 E41.77612
G1 X89.838 Y79.856 E41.84765
G1 X90.5 Y79.825 E41.91028
G1 X103.5 Y79.825 E43.13878
G1 X104.256 Y79.865 E43.21032
G1 X104.338 Y79.856 E43.21811
G1 X105 Y79.825 E43.28074
G1 X118 Y79.825 E44.50924
G1 X118.756 Y79.865 E44.58078
G1 X118.838 Y79.856 E44.58858
G1 X119.5 Y79.825 E44.65121
G1 X132.5 Y79.825 E45.87971
G1 X133.256 Y79.865 E45.95125
G1 X134.004 Y79.984 E46.02282
G1 X134.735 Y80.182 E46.09439
G1 X135.442 Y80.456 E46.16605
G1 X136.115 Y80.802 E46.23756
G1 X136.748 Y81.218 E46.30914
G1 X137.334 Y81.698 E46.38072
G1 X137.866 Y82.237 E46.45229
G1 X138.338 Y82.829 E46.52384
G1 X138.745 Y83.468 E46.59543
G1 X139.083 Y84.146 E46.66702
G1 X139.347 Y84.855 E46.73852
G1 X139.535 Y85.589 E46.81012
G1 X139.644 Y86.338 E46.88164
G1 X139.675 Y87 E46.94427
G1 X139.675 Y100 E48.17277
G1 X139.635 Y100.756 E48.24431
G1 X139.516 Y101.504 E48.31589
G1 X139.318 Y102.235 E48.38746
G1 X139.044 Y102.942 E48.45911
G1 X138.698 Y103.615 E48.53062
G1 X138.282 Y104.248 E48.6022
G1 X137.802 Y104.834 E48.67379
G1 X137.263 Y105.366 E48.74535
G1 X136.671 Y105.838 E48.8169
G1 X136.175 Y106.154 E48.87248
G1 X136.175 Y121.5 E50.32268
G1 X136.135 Y122.256 E50.39422
G1 X136.016 Y123.004 E50.46579
G1 X135.818 Y123.735 E50.53736
G1 X135.544 Y124.442 E50.60901
G1 X135.198 Y125.115 E50.68053
G1 X134.782 Y125.748 E50.75211
G1 X134.302 Y126.334 E50.82369
G1 X133.763 Y126.866 E50.89526
G1 X133.171 Y127.338 E50.96681
G1 X132.532 Y127.745 E51.0384
G1 X131.854 Y128.083 E51.10999
G1 X131.145 Y128.347 E51.18148
G1 X130.411 Y128.535 E51.25309
G1 X129.662 Y128.644 E51.32461
G1 X129 Y128.675 E51.38724
G1 X125.175 Y128.675 E51.7487
G1 X125.175 Y136 E52.44092
G1 X125.135 Y136.756 E52.51246
G1 X125.016 Y137.504 E52.58403
G1 X124.818 Y138.235 E52.6556
G1 X124.544 Y138.942 E52.72725
G1 X124.198 Y139.615 E52.79877
G1 X123.782 Y140.248 E52.87035
G1 X123.302 Y140.834 E52.94193
G1 X122.763 Y141.366 E53.0135
G1 X122.171 Y141.838 E53.08505
G1 X121.532 Y142.245 E53.15664
G1 X120.854 Y142.583 E53.22823
G1 X120.145 Y142.847 E53.29973
G1 X119.411 Y143.035 E53.37133
G1 X118.662 Y143.144 E53.44285
G1 X118 Y143.175 E53.50548
G1 X105 Y143.175 E54.73398
G1 X104.244 Y143.135 E54.80552
G1 X103.496 Y143.016 E54.8771
G1 X102.765 Y142.818 E54.94867
G1 X102.058 Y142.544 E55.02032
G1 X101.385 Y142.198 E55.09183
G1 X100.752 Y141.782 E55.16341
G1 X100.166 Y141.302 E55.23499
G1 X99.634 Y140.763 E55.30656
G1 X99.162 Y140.171 E55.37811
G1 X98.755 Y139.532 E55.4497
G1 X98.417 Y138.854 E55.5213
G1 X98.153 Y138.145 E55.59279
G1 X97.965 Y137.411 E55.66439
G1 X97.856 Y136.662 E55.73592
G1 X97.825 Y136 E55.79855
G1 X97.825 Y128.675 E56.49076
G1 X94 Y128.675 E56.85222
G1 X93.244 Y128.635 E56.92376
G1 X92.496 Y128.516 E56.99534
G1 X91.765 Y128.318 E57.06691
G1 X91.058 Y128.044 E57.13856
G1 X90.385 Y127.698 E57.21007
G1 X89.752 Y127.282 E57.28165
G1 X89.166 Y126.802 E57.35323
G1 X88.634 Y126.263 E57.4248
G1 X88.162 Y125.671 E57.49635
G1 X87.755 Y125.032 E57.56794
G1 X87.417 Y124.354 E57.63954
G1 X87.153 Y123.645 E57.71103
G1 X86.965 Y122.911 E57.78263
G1 X86.856 Y122.162 E57.85416
G1 X86.825 Y121.5 E57.91679
G1 X86.825 Y106.159 E59.36651
G1 X86.252 Y105.782 E59.43133
G1 X85.666 Y105.302 E59.50291
G1 X85.134 Y104.763 E59.57448
G1 X84.662 Y104.171 E59.64603
G1 X84.255 Y103.532 E59.71762
G1 X83.917 Y102.854 E59.78921
G1 X83.653 Y102.145 E59.86071
G1 X83.465 Y101.411 E59.93231
G1 X83.356 Y100.662 E60.00384
G1 X83.325 Y100 E60.06646
G1 X83.325 Y87 E61.29496
G1 X83.365 Y86.244 E61.36651
G1 X83.484 Y85.496 E61.43808
G1 X83.682 Y84.765 E61.50965
G1 X83.956 Y84.058 E61.5813
G1 X84.302 Y83.385 E61.65281
G1 X84.718 Y82.752 E61.72439
G1 X85.198 Y82.166 E61.79598
G1 X85.737 Y81.634 E61.86754
G0 F4500 X85.543 Y82.308
G1 F2880 X86.079 Y81.8 E61.93733
G1 X86.667 Y81.353 E62.00713
G1 X87.3 Y80.972 E62.07695
G1 X87.97 Y80.661 E62.14675
G1 X88.67 Y80.425 E62.21656
G1 X89.391 Y80.266 E62.28633
G1 X90.126 Y80.185 E62.35621
G1 X90.5 Y80.175 E62.39157
G1 X103.5 Y80.175 E63.62007
G1 X104.238 Y80.215 E63.68991
G1 X105 Y80.175 E63.76202
G1 X118 Y80.175 E64.99052
G1 X118.738 Y80.215 E65.06036
G1 X119.5 Y80.175 E65.13247
G1 X132.5 Y80.175 E66.36097
G1 X133.238 Y80.215 E66.43081
G1 X133.966 Y80.334 E66.50052
G1 X134.678 Y80.532 E66.57036
G1 X135.364 Y80.805 E66.64013
G1 X136.017 Y81.151 E66.70997
G1 X136.629 Y81.565 E66.77979
G1 X137.192 Y82.043 E66.84958
G1 X137.7 Y82.579 E66.91937
G1 X138.147 Y83.167 E66.98917
G1 X138.528 Y83.8 E67.05899
G1 X138.839 Y84.47 E67.12879
G1 X139.075 Y85.17 E67.1986
G1 X139.234 Y85.891 E67.26837
G1 X139.315 Y86.626 E67.33825
G1 X139.325 Y87 E67.3736
G1 X139.325 Y100 E68.6021
G1 X139.285 Y100.738 E68.67195
G1 X139.166 Y101.466 E68.74166
G1 X138.968 Y102.178 E68.81149
G1 X138.695 Y102.864 E68.88127
G1 X138.349 Y103.517 E68.9511
G1 X137.935 Y104.129 E69.02092
G1 X137.457 Y104.692 E69.09072
G1 X136.921 Y105.2 E69.1605
G1 X136.333 Y105.647 E69.2303
G1 X135.825 Y105.953 E69.28635
G1 X135.825 Y121.5 E70.75554
G1 X135.785 Y122.238 E70.82538
G1 X135.666 Y122.966 E70.89509
G1 X135.468 Y123.678 E70.96493
G1 X135.195 Y124.364 E71.0347
G1 X134.849 Y125.017 E71.10453
G1 X134.435 Y125.629 E71.17436
G1 X133.957 Y126.192 E71.24415
G1 X133.421 Y126.7 E71.31394
G1 X132.833 Y127.147 E71.38374
G1 X132.2 Y127.528 E71.45356
G1 X131.53 Y127.839 E71.52336
G1 X130.83 Y128.075 E71.59317
G1 X130.109 Y128.234 E71.66294
G1 X129.374 Y128.315 E71.73282
G1 X129 Y128.325 E71.76817
G1 X124.825 Y128.325 E72.16271
G1 X124.825 Y136 E72.888
G1 X124.785 Y136.738 E72.95784
G1 X124.666 Y137.466 E73.02755
G1 X124.468 Y138.178 E73.09739
G1 X124.195 Y138.864 E73.16716
G1 X123.849 Y139.517 E73.237
G1 X123.435 Y140.129 E73.30682
G1 X122.957 Y140.692 E73.37661
G1 X122.421 Y141.2 E73.4464
G1 X121.833 Y141.647 E73.5162
G1 X121.2 Y142.028 E73.58602
G1 X120.53 Y142.339 E73.65582
G1 X119.83 Y142.575 E73.72563
G1 X119.109 Y142.734 E73.7954
G1 X118.374 Y142.815 E73.86528
G1 X118 Y142.825 E73.90063
G1 X105 Y142.825 E75.12913
G1 X104.262 Y142.785 E75.19898
G1 X103.534 Y142.666 E75.26869
G1 X102.822 Y142.468 E75.33852
G1 X102.136 Y142.195 E75.40829
G1 X101.483 Y141.849 E75.47813
G1 X100.871 Y141.435 E75.54795
G1 X100.308 Y140.957 E75.61775
G1 X99.8 Y140.421 E75.68753
G1 X99.353 Y139.833 E75.75733
G1 X98.972 Y139.2 E75.82715
G1 X98.661 Y138.53 E75.89695
G1 X98.425 Y137.83 E75.96676
G1 X98.266 Y137.109 E76.03653
G1 X98.185 Y136.374 E76.10641
G1 X98.175 Y136 E76.14177
G1 X98.175 Y128.325 E76.86706
G1 X94 Y128.325 E77.26159
G1 X93.262 Y128.285 E77.33144
G1 X92.534 Y128.166 E77.40115
G1 X91.822 Y127.968 E77.47098
G1 X91.136 Y127.695 E77.54075
G1 X90.483 Y127.349 E77.61059
G1 X89.871 Y126.935 E77.68041
G1 X89.308 Y126.457 E77.75021
G1 X88.8 Y125.921 E77.81999
G1 X88.353 Y125.333 E77.88979
G1 X87.972 Y124.7 E77.95961
G1 X87.661 Y124.03 E78.02941
G1 X87.425 Y123.33 E78.09922
G1 X87.266 Y122.609 E78.16899
G1 X87.185 Y121.874 E78.23887
G1 X87.175 Y121.5 E78.27423
G1 X87.175 Y105.951 E79.74361
G1 X86.983 Y105.849 E79.76415
G1 X86.371 Y105.435 E79.83398
G1 X85.808 Y104.957 E79.90377
G1 X85.3 Y104.421 E79.97356
G1 X84.853 Y103.833 E80.04336
G1 X84.472 Y103.2 E80.11318
G1 X84.161 Y102.53 E80.18298
G1 X83.925 Y101.83 E80.25279
G1 X83.766 Y101.109 E80.32256
G1 X83.685 Y100.374 E80.39244
G1 X83.675 Y100 E80.42779
G1 X83.675 Y87 E81.65629
G1 X83.715 Y86.262 E81.72614
G1 X83.834 Y85.534 E81.79584
G1 X84.032 Y84.822 E81.86568
G1 X84.305 Y84.136 E81.93545
G1 X84.651 Y83.483 E82.00529
G1 X85.065 Y82.871 E82.07511
G1 X85.543 Y82.308 E82.14491
G0 F4500 X85.889 Y82.455
G1 F2880 X86.421 Y81.971 E82.21287
G1 X87.004 Y81.55 E82.28083
G1 X87.631 Y81.196 E82.34887
G1 X88.292 Y80.913 E82.41682
G1 X88.981 Y80.706 E82.48481
G1 X89.689 Y80.576 E82.55283
G1 X90.5 Y80.525 E82.62962
G1 X103.5 Y80.525 E83.85812
G1 X104.218 Y80.565 E83.92608
G1 X104.258 Y80.572 E83.92992
G1 X105 Y80.525 E84.00017
G1 X118 Y80.525 E85.22867
